svg/u1fad0.svg

<svg viewBox="0 0 128 128" xmlns="http://www.w3.org/2000/svg">
  <defs/>
  <path d="M21.1,23.79 C20.64,23.9 19.02,22.56 14.09,23.03 C12.22,23.21 11.54,23.69 11.54,23.69 C11.54,23.69 11.72,21.03 13.96,19.24 C15.53,17.98 16.97,17.49 17.96,17.3 C18.67,17.16 19.12,16.49 19.01,15.77 C18.74,14.06 18.69,11.25 20.84,9.82 C22.86,8.47 25.03,9.4 26.36,10.28 C27.02,10.72 27.9,10.51 28.28,9.8 C28.78,8.86 29.61,7.63 30.9,6.63 C33.41,4.69 35.75,6.01 35.75,6.01 C35.75,6.01 33.6,7.87 33.5,12.61 C33.49,13.13 33.69,14.43 33.41,14.89 C30.13,17.22 28.03,19.02 24.75,21.36 C23.38,22.34 23,22.6 21.61,23.55 C21.43,23.68 21.26,23.75 21.1,23.79 Z" fill="#3F51B5"/>
  <path d="M74.05,39.44 A30.22 30.22 0 1 1 13.61,39.44 A30.22 30.22 0 1 1 74.05,39.44 Z" fill="#3F51B5"/>
  <path d="M61.17,14.69 C62.75,17.72 65.27,19.76 63.45,29.49 C62.04,37.03 55.74,44.91 42.8,45.75 C31.79,46.46 24.01,40.45 21.78,33.15 C19.66,26.21 20.91,20.33 25.31,15.55 C14.09,23.03 13.61,35.96 13.61,39.43 C13.61,56.12 27.14,69.65 43.83,69.65 C60.52,69.65 74.05,56.12 74.05,39.43 C74.06,29.2 68.96,20.15 61.17,14.69 Z" fill="#303F9F"/>
  <path d="M123.51,59.75 A33.12 33.12 0 1 1 57.27,59.75 A33.12 33.12 0 1 1 123.51,59.75 Z" fill="#5064C9"/>
  <path d="M123.47,61.06 C117.78,75.47 104.68,86.98 84.28,80.66 C67.61,75.49 58.87,55.66 63.79,40.11 C61.73,42.92 60.08,46.1 58.96,49.6 C53.4,67.02 62.98,85.65 80.37,91.2 C97.76,96.75 116.37,87.13 121.93,69.71 C122.84,66.84 123.34,63.94 123.47,61.06 Z" fill="#4054B0"/>
  <path d="M100.36,46.17 C100.36,46.17 103.84,54.17 109.48,52.25 C112.86,51.1 111.98,45.46 111.98,45.46 C111.98,45.46 120.97,45.05 120.56,41.1 C120.14,37.05 114.49,35.73 114.49,35.73 C114.49,35.73 114,29.88 111.98,28.33 C108.61,25.76 104.42,29.75 104.42,29.75 C104.42,29.75 101.19,24.34 96.31,25.39 C92.4,26.23 94.54,34.59 94.54,34.59 C94.54,34.59 88.88,34.52 91.23,39.17 C93.8,44.27 100.36,46.17 100.36,46.17 Z" fill="#8092F2"/>
  <path d="M107.309,33.395 C110.93,35.217 112.568,39.274 110.967,42.456 C109.366,45.638 105.133,46.741 101.512,44.919 C97.89,43.097 96.253,39.041 97.853,35.859 C99.454,32.676 103.688,31.574 107.309,33.395 Z" fill="#2F3E82"/>
  <path d="M106.974,35.598 C109.88,37.572 110.847,41.216 109.135,43.738 C107.422,46.26 103.678,46.705 100.772,44.732 C97.866,42.759 96.899,39.114 98.611,36.592 C100.324,34.07 104.068,33.625 106.974,35.598 Z" fill="#5064C9"/>
  <path d="M72.85,88.24 A34.18 34.18 0 1 1 4.49,88.24 A34.18 34.18 0 1 1 72.85,88.24 Z" fill="#6678D9"/>
  <path d="M70.98,77.09 C71.17,78.41 71.65,112.37 37.19,113.35 C23.07,113.75 13.5,104.44 9.06,93.76 C4.5,82.79 9.9,69.8 9.9,69.8 C9.9,69.8 7.01,74.46 6.37,77.09 C5.16,80.59 4.5,84.34 4.5,88.24 C4.5,107.12 19.8,122.42 38.68,122.42 C57.56,122.42 72.86,107.12 72.86,88.24 C72.85,84.33 72.18,80.58 70.98,77.09 Z" fill="#5366CF"/>
  <path d="M35.42,81.76 C35.42,81.76 31.37,89.67 24.02,87.53 C20.62,86.54 22.21,81.22 22.21,81.22 C22.21,81.22 17.46,80.83 15.74,76.74 C14.2,73.08 22.44,71.62 22.44,71.62 C22.44,71.62 19.18,65.62 22.63,63.2 C26.08,60.78 29.84,66.22 29.84,66.22 C29.84,66.22 32.91,57.36 36.9,60.29 C40.72,63.1 39.75,71.2 39.75,71.2 C39.75,71.2 46.63,72.36 44.31,77.01 C41.75,82.13 35.42,81.76 35.42,81.76 Z" fill="#9AA7ED"/>
  <path d="M37.79,73.508 C38.632,77.377 35.916,81.254 31.723,82.167 C27.53,83.081 23.448,80.684 22.606,76.815 C21.763,72.946 24.479,69.069 28.672,68.156 C32.865,67.243 36.947,69.639 37.79,73.508 Z" fill="#2C3F9E"/>
  <path d="M37.838,74.304 C38.578,77.704 36.304,81.086 32.759,81.858 C29.214,82.63 25.739,80.5 24.999,77.1 C24.258,73.701 26.532,70.319 30.078,69.547 C33.623,68.774 37.097,70.904 37.838,74.304 Z" fill="#5366CF"/>
</svg>

<svg viewBox="0 0 128 128" xmlns="http://www.w3.org/2000/svg">
  <g>
    <g>
      <path d="M21.1,23.79c-0.46,0.11-2.08-1.23-7.01-0.76c-1.87,0.18-2.55,0.66-2.55,0.66s0.18-2.66,2.42-4.45 c1.57-1.26,3.01-1.75,4-1.94c0.71-0.14,1.16-0.81,1.05-1.53c-0.27-1.71-0.32-4.52,1.83-5.95c2.02-1.35,4.19-0.42,5.52,0.46 c0.66,0.44,1.54,0.23,1.92-0.48c0.5-0.94,1.33-2.17,2.62-3.17c2.51-1.94,4.85-0.62,4.85-0.62s-2.15,1.86-2.25,6.6 c-0.01,0.52,0.19,1.82-0.09,2.28c-3.28,2.33-5.38,4.13-8.66,6.47c-1.37,0.98-1.75,1.24-3.14,2.19 C21.43,23.68,21.26,23.75,21.1,23.79z" fill="#3F51B5"/>
      <circle cx="43.83" cy="39.44" fill="#3F51B5" r="30.22"/>
      <path d="M61.17,14.69c1.58,3.03,4.1,5.07,2.28,14.8c-1.41,7.54-7.71,15.42-20.65,16.26 c-11.01,0.71-18.79-5.3-21.02-12.6c-2.12-6.94-0.87-12.82,3.53-17.6c-11.22,7.48-11.7,20.41-11.7,23.88 c0,16.69,13.53,30.22,30.22,30.22s30.22-13.53,30.22-30.22C74.06,29.2,68.96,20.15,61.17,14.69z" fill="#303F9F"/>
    </g>
    <g>
      <circle cx="90.39" cy="59.75" fill="#5064C9" r="33.12"/>
      <path d="M123.47,61.06c-5.69,14.41-18.79,25.92-39.19,19.6c-16.67-5.17-25.41-25-20.49-40.55 c-2.06,2.81-3.71,5.99-4.83,9.49c-5.56,17.42,4.02,36.05,21.41,41.6c17.39,5.55,36-4.07,41.56-21.49 C122.84,66.84,123.34,63.94,123.47,61.06z" fill="#4054B0"/>
      <path d="M100.36,46.17c0,0,3.48,8,9.12,6.08c3.38-1.15,2.5-6.79,2.5-6.79s8.99-0.41,8.58-4.36 c-0.42-4.05-6.07-5.37-6.07-5.37s-0.49-5.85-2.51-7.4c-3.37-2.57-7.56,1.42-7.56,1.42s-3.23-5.41-8.11-4.36 c-3.91,0.84-1.77,9.2-1.77,9.2s-5.66-0.07-3.31,4.58C93.8,44.27,100.36,46.17,100.36,46.17z" fill="#8092F2"/>
      <ellipse cx="104.42" cy="39.16" fill="#2F3E82" rx="6.45" ry="7.34" transform="matrix(0.4494 -0.8933 0.8933 0.4494 22.5023 114.8371)"/>
      <ellipse cx="103.87" cy="40.17" fill="#5064C9" rx="5.52" ry="6.36" transform="matrix(0.5618 -0.8273 0.8273 0.5618 12.2862 103.5293)"/>
    </g>
    <g>
      <circle cx="38.67" cy="88.24" fill="#6678D9" r="34.18"/>
      <path d="M70.98,77.09c0.19,1.32,0.67,35.28-33.79,36.26c-14.12,0.4-23.69-8.91-28.13-19.59 C4.5,82.79,9.9,69.8,9.9,69.8s-2.89,4.66-3.53,7.29c-1.21,3.5-1.87,7.25-1.87,11.15c0,18.88,15.3,34.18,34.18,34.18 s34.18-15.3,34.18-34.18C72.85,84.33,72.18,80.58,70.98,77.09z" fill="#5366CF"/>
      <path d="M35.42,81.76c0,0-4.05,7.91-11.4,5.77c-3.4-0.99-1.81-6.31-1.81-6.31s-4.75-0.39-6.47-4.48 c-1.54-3.66,6.7-5.12,6.7-5.12s-3.26-6,0.19-8.42s7.21,3.02,7.21,3.02s3.07-8.86,7.06-5.93c3.82,2.81,2.85,10.91,2.85,10.91 s6.88,1.16,4.56,5.81C41.75,82.13,35.42,81.76,35.42,81.76z" fill="#9AA7ED"/>
      <ellipse cx="30.2" cy="75.16" fill="#2C3F9E" rx="7.77" ry="7.17" transform="matrix(0.9771 -0.2128 0.2128 0.9771 -15.3048 8.1493)"/>
      <ellipse cx="31.42" cy="75.7" fill="#5366CF" rx="6.57" ry="6.3" transform="matrix(0.9771 -0.2128 0.2128 0.9771 -15.3911 8.422)"/>
    </g>
  </g>
</svg>
